!!!!SEGMENT: pl-kk--kk-i-7--054-001_certon-pierre--missa-de-sanctis-confessoribus-kyrie.krn
!!!cenid: 16xx:879
!!!COM: Certon, Pierre
!!!COM-rismid: pe30006023
!!!CDT: ~1510-1572/02/23
!!!CNT: French
!!!OPR: Missa de Sanctis Confessoribus
!!!OTL: Kyrie
!!!OMV: 001
!!!PDT:
!!!AGN: Sacred; Mass
!!!SMS-siglum: PL-Kk
!!!SMS-shelfmark: Kk.I.7
!!!SMS-shelfwork: 054-001 M
!!!SMS-variant:
!!!SMS-altvar:
!!!NIFC-rismid: 300258131
!!!URL-scan: http://repozytorium.nifc.pl/skany/pl-kk-nut--i-7
!!!ONB-nifc: UWAGA: C (skan 0051-0052, s.95-97), A (0135-0136, s.91-93), T(0211-0212. s.85-87), B(0299-0300, s.85-86). Części Mszy: 1. Kyrie, 2. Et in terra, 3. Sanctus, 4. Agnus Dei. "Agnus II" rozpisany na 5 głosów. Głos dodatkowy zapisany w księdze A na stronie 93
!!!key:
**kern	**text	**kern	**text	**kern	**text	**kern	**text
*part4	*part4	*part3	*part3	*part2	*part2	*part1	*part1
*staff4	*staff4	*staff3	*staff3	*staff2	*staff2	*staff1	*staff1
*Iempty	*	*Itenor	*	*Ialto	*	*Ivox	*
*I"[Basso]	*	*I"[Tenore]	*	*I"[Alto]	*	*I"[Canto]	*
*I'[B.]	*	*I'[T.]	*	*I'[A.]	*	*I'[C.]	*
*clefF4	*	*clefC4	*	*clefC3	*	*clefC1	*
*k[b-]	*	*k[b-]	*	*k[b-]	*	*k[b-]	*
*g:	*	*g:	*	*g:	*	*g:	*
*M2/1	*	*M2/1	*	*M2/1	*	*M2/1	*
=1-	=1-	=1-	=1-	=1-	=1-	=1-	=1-
00r	.	00r	.	1.g\	Ky-	1r	.
.	.	.	.	.	.	1.dd\	Ky-
*	*	*	*	*2\right	*	*	*
.	.	.	.	2g\	-ri-	.	.
=2-	=2-	=2-	=2-	=2-	=2-	=2-	=2-
*	*	*	*	*lig	*	*2\right	*
.	.	.	.	1f\	-e	.	.
.	.	.	.	.	.	2cc\	-ri-
.	.	.	.	1g\	.	1b-\	-e
*	*	*	*	*Xlig	*	*	*
=3-	=3-	=3-	=3-	=3-	=3-	=3-	=3-
!LO:TX:t=P:problem=kreska pseudotaktowa	!	!LO:TX:t=P:problem=kreska pseudotaktowa	!	!	!	!	!
1r	.	0r	.	1.d\	lei-	2a\	e-
.	.	.	.	.	.	2.b-\	-ley-
1.G\	Ky-	.	.	.	.	.	.
.	.	.	.	.	.	4a\	.
.	.	.	.	2c/	.	4g/	.
!	!	!	!	!	!	!LO:TX:t=P:problem=kreska pseudotaktowa	!
.	.	.	.	.	.	4f/	.
=4-	=4-	=4-	=4-	=4-	=4-	=4-	=4-
.	.	1.d\	Ky-	4B-/	.	2g\	.
.	.	.	.	4c/	.	.	.
*2\right	*	*	*	*	*	*	*
2G\	-ri-	.	.	4d/	.	1b-\	.
.	.	.	.	4e/	.	.	.
!	!	!	!	!LO:TX:t=P:problem=kreska pseudotaktowa	!	!	!
1F\	-e	.	.	1f\	-son	.	.
*	*	*2\right	*	*	*	*	*
.	.	2d\	-ri-	.	.	1a\	.
=5-	=5-	=5-	=5-	=5-	=5-	=5-	=5-
*lig	*	*	*	*	*	*	*
1G\	e-	1B-\	-e	2.d\	/Ky-	.	.
!	!	!	!	!	!	!LO:TX:t=P:problem=kreska pseudotaktowa	!
.	.	.	.	.	.	2g\	.
.	.	.	.	4e\	-ri-	.	.
1D\	.	2A\	e-	1f\	-e	2a\	.
.	.	2.B-\	.	.	.	2dd\	.
*Xlig	*	*	*	*	*	*	*
=6-	=6-	=6-	=6-	=6-	=6-	=6-	=6-
!LO:TX:t=P:problem=♭ above	!	!	!	!	!	!	!
0E-X\	-lei-	.	.	2e\	e-	2cc\	.
.	.	4A/	.	.	.	.	.
.	.	4G/	.	1d\	-lei-	1b-\	.
.	.	4F/	.	.	.	.	.
.	.	1G/	.	.	.	.	.
.	.	.	.	2c\	.	4a\	.
.	.	.	.	.	.	4g\	.
=7-	=7-	=7-	=7-	=7-	=7-	=7-	=7-
!LO:TX:t=P:problem=kreska pseudotaktowa	!	!	!	!	!	!	!
1D\	-son	2A\	-lei-	1d\	.	2f/	.
.	.	1d\	.	.	.	2d/	.
!	!	!	!	!LO:TX:t=P:problem=kreska pseudotaktowa	!	!	!
1r	.	.	.	0A/	-son/	1e/	.
!	!	!LO:TX:t=P:problem=kreska pseudotaktowa	!	!	!	!	!
.	.	2c\	.	.	.	.	.
=8-	=8-	=8-	=8-	=8-	=8-	=8-	=8-
!	!	!	!	!	!	!LO:TX:t=P:problem=kreska pseudotaktowa	!
*	*ij	*	*	*	*	*	*
1D\	Ky-	2d\	-son	.	.	1d/	-son
*	*	*	*ij	*	*	*	*
.	.	1A\	Ky-	.	.	.	.
2C/	-ri-	.	.	1r	.	1r	.
2E\	-e	2G/	-ri-	.	.	.	.
=9-	=9-	=9-	=9-	=9-	=9-	=9-	=9-
2.D\	e-	2B-\	-e	1d\	/Ky-	2r	.
.	.	2.A\	e-	.	.	1a\	e-
!LO:TX:t=P:problem=kreska pseudotaktowa	!	!	!	!	!	!	!
4E\	.	.	.	.	.	.	.
2F\	-lei-	.	.	2c\	-ri-	.	.
.	.	4B-\	.	.	.	.	.
2C/	.	1c\	-lei-	1e\	-e	2g\	-ley-
=10-	=10-	=10-	=10-	=10-	=10-	=10-	=10-
1G\	.	.	.	.	.	1b-\	.
!	!	!LO:TX:t=P:problem=kreska pseudotaktowa	!	!	!	!	!
.	.	2B-\	.	2d\	e-	.	.
2F\	.	2c,\	-son	1f\	-lei-	1a\	-son
*	*	*	*Xij	*	*	*	*
2D\	.	1d\	Ky-	.	.	.	.
=11-	=11-	=11-	=11-	=11-	=11-	=11-	=11-
!LO:TX:t=P:problem=kreska pseudotaktowa	!	!	!	!LO:TX:t=P:problem=kreska pseudotaktowa	!	!	!
1A\	-son	.	.	1e\	-son/	2r	.
.	.	2c\	-ri-	.	.	1a\	Ky-
1r	.	1e\	-e	2r	.	.	.
.	.	.	.	2c\	Ky-	2g\	-ri-
=12-	=12-	=12-	=12-	=12-	=12-	=12-	=12-
2r	.	2.d\	.	2d\	-ri-	2.b-\	-e
*	*Xij	*	*	*	*	*	*
1D\	Ky-	.	.	1f\	-e	.	.
.	.	4c\	.	.	.	4a\	e-
.	.	4A\	e-	.	.	4f/	.
.	.	4B-\	.	.	.	4g/	.
2C/	-rie	2.c\	.	[2e\	.	1a\	.
=13-	=13-	=13-	=13-	=13-	=13-	=13-	=13-
!LO:TX:t=P:problem=♭ above	!	!	!	!	!	!	!
1E-X\	lei-	.	.	2e\]	.	.	.
.	.	4B-\	-lei-	.	.	.	.
.	.	4A\	.	2c\	e-	1g\	-lei-
.	.	4G/	.	.	.	.	.
1D\	.	1A\	.	1d\	-lei-	.	.
.	.	.	.	.	.	2f/	.
!!linebreak:original
=14-	=14-	=14-	=14-	=14-	=14-	=14-	=14-
00GG/;	-son.	00Bn\;	-son.	00d\;	-son.	00g\;	-son.
=15||-	=15||-	=15||-	=15||-	=15||-	=15||-	=15||-	=15||-
*M2/1	*	*M2/1	*	*M2/1	*	*M2/1	*
1.G\	Chri-	0r	.	00r	.	00r	.
2G\	-ste	.	.	.	.	.	.
=16-	=16-	=16-	=16-	=16-	=16-	=16-	=16-
2.F\	.	1.d\	Chri-	.	.	.	.
!LO:TX:t=P:problem=kreska pseudotaktowa	!	!	!	!	!	!	!
4E\	e-	.	.	.	.	.	.
2D\	.	.	.	.	.	.	.
2F\	.	2d\	-ste	.	.	.	.
=17-	=17-	=17-	=17-	=17-	=17-	=17-	=17-
4E\	.	2c\	.	0r	.	00r	.
4D\	.	.	.	.	.	.	.
1G\	.	2B-\	e-	.	.	.	.
.	.	2A\	.	.	.	.	.
!LO:TX:t=P:problem=kreska pseudotaktowa	!	!	!	!	!	!	!
2F\	.	4D/	.	.	.	.	.
.	.	4E/	.	.	.	.	.
=18-	=18-	=18-	=18-	=18-	=18-	=18-	=18-
!	!	!	!	!LO:TX:t=P:problem=kreska pseudotaktowa	!	!	!
2D\	.	4F/	.	1r	.	.	.
.	.	4G/	.	.	.	.	.
1F\	-lei-	4A/	.	.	.	.	.
.	.	4B-/	.	.	.	.	.
.	.	2c\	-lei-	1.g\	Chri-	.	.
4E\	.	1d\	.	.	.	.	.
4D\	.	.	.	.	.	.	.
=19-	=19-	=19-	=19-	=19-	=19-	=19-	=19-
1E\	.	.	.	.	.	1.dd\	Chri-
.	.	2c\	.	2g\	-ste	.	.
!LO:TX:t=P:problem=kreska pseudotaktowa	!	!LO:TX:t=P:problem=kreska pseudotaktowa	!	!	!	!	!
0D\	-son	0d\	-son	2.f\	.	.	.
.	.	.	.	.	.	2dd\	-ste
.	.	.	.	4e\	.	.	.
=20-	=20-	=20-	=20-	=20-	=20-	=20-	=20-
.	.	.	.	2d\	e-	2cc\	.
.	.	.	.	2f\	.	2b-\	e-
!LO:TX:a:t=6.	!	!LO:TX:t=P:problem=kreska pseudotaktowa	!	!	!	!	!
00r	.	1r	.	4e\	.	2a\	.
.	.	.	.	4d\	.	.	.
!	!	!	!	!	!	!LO:TX:t=P:problem=kreska pseudotaktowa	!
.	.	.	.	1g\	.	2d/	.
!	!	!LO:LB:g=original	!	!	!	!LO:LB:g=original	!
=21-	=21-	=21-	=21-	=21-	=21-	=21-	=21-
*	*	*	*ij	*	*	*	*
.	.	1.d\	Chri-	.	.	2.f/	-lei-
*	*	*	*	*custos:dd	*	*	*
!	!	!	!	!LO:TX:t=P:problem=kreska pseudotaktowa	!	!	!
.	.	.	.	2f\	.	.	.
.	.	.	.	.	.	4g/	.
!	!	!	!	!LO:LB:g=original	!	!	!
.	.	.	.	2d\	.	4a/	.
.	.	.	.	.	.	4f/	.
.	.	2d\	-ste	1f\	-lei-	2.g/	.
=22-	=22-	=22-	=22-	=22-	=22-	=22-	=22-
.	.	1c\	e-	.	.	.	.
.	.	.	.	.	.	4f/	.
.	.	.	.	1e\	.	4e/	.
.	.	.	.	.	.	4d/	.
!LO:TX:t=P:problem=kreska pseudotaktowa	!	!	!	!	!	!	!
0r	.	1B-\	-lei-	.	.	1e/	.
.	.	.	.	1d\	.	.	.
=23-	=23-	=23-	=23-	=23-	=23-	=23-	=23-
!	!	!LO:TX:t=P:problem=kreska pseudotaktowa	!	!	!	!	!
.	.	1A\	-son	.	.	0d/	-son
.	.	.	.	2c\	.	.	.
!LO:LB:g=original	!	!	!	!LO:TX:t=P:problem=kreska pseudotaktowa	!	!	!
0G\	X-	2r	.	1d\	-son	.	.
*	*	*	*Xij	*	*	*	*
.	.	2G/	X-	.	.	.	.
=24-	=24-	=24-	=24-	=24-	=24-	=24-	=24-
.	.	2.B-\	-te	2r	.	2r	.
.	.	.	.	2G/	X-	2d/	e-
.	.	4c\	.	.	.	.	.
*	*	*	*	*	*	*lig	*
1G\	-te	2d\	e-	1B-/	-te	1f/	-lei-
.	.	2.B-\	-lei-	.	.	.	.
=25-	=25-	=25-	=25-	=25-	=25-	=25-	=25-
1F\	e-	.	.	2c\	e-	1g\	.
.	.	4A/	.	.	.	.	.
.	.	1A\	.	1d\	-lei-	.	.
*	*	*	*	*	*	*Xlig	*
!LO:TX:t=P:problem=♭ above	!	!	!	!	!	!	!
1E-X\	-lei-	.	.	.	.	0.f/;	-son
.	.	2G/	.	2c\	.	.	.
=26-	=26-	=26-	=26-	=26-	=26-	=26-	=26-
0D\	-son.	0A\;	-son.	0d\;	-son.	.	.
=27||-	=27||-	=27||-	=27||-	=27||-	=27||-	=27||-	=27||-
*M2/1	*	*M2/1	*	*M2/1	*	*M2/1	*
1.D\	Ky-	1.d\	Ky-	00r	.	0r	.
2D\	-ri-	2d\	-rie	.	.	.	.
=28-	=28-	=28-	=28-	=28-	=28-	=28-	=28-
2E\	-e	2c\	e-	.	.	0r	.
1G\	e-	2B-\	-lei-	.	.	.	.
!	!	!LO:TX:t=P:problem=kreska pseudotaktowa	!	!	!	!	!
.	.	1A\	-son	.	.	.	.
2F\	-lei-	.	.	.	.	.	.
!!linebreak:original
=29-	=29-	=29-	=29-	=29-	=29-	=29-	=29-
!LO:TX:t=P:problem=kreska pseudotaktowa	!	!	!	!	!	!	!
0G\	-son	2r	.	1.d\	Ky-	1.dd\	Ky-
*	*	*	*ij	*	*	*	*
.	.	1G/	Ky-	.	.	.	.
.	.	2B-\	-ri-	2d\	-ri-	2dd\	-ri-
=30-	=30-	=30-	=30-	=30-	=30-	=30-	=30-
0r	.	2A/	-e	2e\	-e	2cc\	-e
.	.	2G/	e-	1g\	e-	2b-\	e-
.	.	1d\	-lei-	.	.	1a\	-ley-
.	.	.	.	2f\	-lei-	.	.
=31-	=31-	=31-	=31-	=31-	=31-	=31-	=31-
!	!	!	!	!LO:TX:t=P:problem=kreska pseudotaktowa	!	!	!
2r	.	2G,/	-son	0g\	-son	1g\	-son
*	*ij	*	*Xij	*	*	*	*
1G\	Ky-	1d\	Ky-	.	.	.	.
.	.	.	.	.	.	1r	.
!LO:TX:t=P:problem=kreska pseudotaktowa	!	!LO:TX:t=P:problem=kreska pseudotaktowa	!	!	!	!	!
2B-\	-ri-	2d\	-ri-	.	.	.	.
=32-	=32-	=32-	=32-	=32-	=32-	=32-	=32-
2A\	-e	2c\	-e	2r	.	1r	.
1G\	e-	2B-\	.	1d\	/Ky-	.	.
.	.	1A\	.	.	.	1r	.
2F\	-lei-	.	.	2f\	-ri-	.	.
=33-	=33-	=33-	=33-	=33-	=33-	=33-	=33-
!LO:TX:t=P:problem=kreska pseudotaktowa	!	!LO:TX:t=P:problem=kreska pseudotaktowa	!	!	!	!	!
1G\	-son	1G/	e-	2e\	-e	2r	.
.	.	.	.	1d\	e-	1g\	/Ky-
0r	.	1G/	-lei-	.	.	.	.
.	.	.	.	4c/	.	2b-\	-ri-
.	.	.	.	4B-/	.	.	.
=34-	=34-	=34-	=34-	=34-	=34-	=34-	=34-
.	.	2F/	.	2c/	-lei-	2a\	-e
.	.	2G/	.	2B-/	.	1g\	e-
!LO:TX:t=P:problem=kreska pseudotaktowa	!	!LO:TX:t=P:problem=kreska pseudotaktowa	!	!	!	!	!
1r	.	1D/	-son	1A/	.	.	.
.	.	.	.	.	.	2f/	.
=35-	=35-	=35-	=35-	=35-	=35-	=35-	=35-
!	!	!	!	!LO:TX:t=P:problem=kreska pseudotaktowa	!	!	!
2r	.	2r	.	1G/	-son/	2g\	-lei-
*	*Xij	*	*ij	*	*	*	*
2G\	Ky-	2d\	Ky-	.	.	2b-\	.
*	*	*lig	*	*	*	*	*
1G\	-ri-	1d\	-ri-	2r	.	1b-\	.
.	.	.	.	2g\	/Ky-	.	.
=36-	=36-	=36-	=36-	=36-	=36-	=36-	=36-
*	*	*	*	*lig	*	*	*
1C/	-e	1e\	.	1g\	-ri-	1cc\	.
*lig	*	*Xlig	*	*	*	*	*
*	*	*lig	*	*	*	*	*
1F\	e-	1c\	-e	1f\	.	1a\	.
*	*	*	*	*Xlig	*	*	*
=37-	=37-	=37-	=37-	=37-	=37-	=37-	=37-
1D\	.	1.d\	.	1f\	-e	1a\	.
*Xlig	*	*Xlig	*	*	*	*	*
1.G\	-lei-	.	.	2.g\	e-	2.b-\	.
.	.	2c\	e-	.	.	.	.
.	.	.	.	4f\	.	4a\	.
=38-	=38-	=38-	=38-	=38-	=38-	=38-	=38-
.	.	2B-\	-lei-	4e\	-lei-	0g\	.
.	.	.	.	4d\	.	.	.
2F\	.	2A\	.	1d\	.	.	.
1E\	.	1G/	.	.	.	.	.
.	.	.	.	2c\	.	.	.
=39-	=39-	=39-	=39-	=39-	=39-	=39-	=39-
!LO:TX:t=P:problem=kreska pseudotaktowa	!	!LO:TX:t=P:problem=kreska pseudotaktowa	!	!LO:TX:t=P:problem=kreska pseudotaktowa	!	!	!
1D\	-son	1A\	-son	0d\	-son/	1f/	-son/
2r	.	2r	.	.	.	2r	.
*	*ij	*	*Xij	*	*	*	*
2G\	Ky-	2G/	Ky-	.	.	2b-\	Ky-
=40-	=40-	=40-	=40-	=40-	=40-	=40-	=40-
*	*	*lig	*	*	*	*	*
1G\	-ri-	1d\	-ri-	2r	.	1b-\	-ri-
.	.	.	.	2g\	Ky-	.	.
*lig	*	*	*	*	*	*	*
*	*	*custos:c	*	*	*	*	*
!	!	!LO:TX:t=P:problem=kreska pseudotaktowa	!	!	!	!	!
1C/	-e	1e\	.	1g\	-ri-	1cc\	-e
*	*	*Xlig	*	*	*	*	*
!	!	!LO:LB:g=original	!	!	!	!	!
=41-	=41-	=41-	=41-	=41-	=41-	=41-	=41-
*	*	*lig	*	*	*	*	*
1F\	.	1c\	-e	1f\	-e	0a\	e-
*Xlig	*	*	*	*lig	*	*	*
!LO:TX:t=P:problem=kreska pseudotaktowa	!	!	!	!	!	!	!
1D\	e-	1d\	.	1f\	.	.	.
*	*	*Xlig	*	*	*	*	*
=42-	=42-	=42-	=42-	=42-	=42-	=42-	=42-
1.G\	-lei-	2B-\	.	1.d\	.	1b-\	-lei-
.	.	4G/	lei-	.	.	.	.
!	!	!LO:TX:t=P:problem=kreska pseudotaktowa	!	!	!	!	!
.	.	4A/	.	.	.	.	.
.	.	4B-\	.	.	.	2b-\	.
.	.	4c\	.	.	.	.	.
*	*	*	*	*Xlig	*	*	*
2F\	.	2d\	.	2A/	e-	1a\	.
=43-	=43-	=43-	=43-	=43-	=43-	=43-	=43-
1E\	.	4c\	.	1c\	-lei-	.	.
.	.	4B-\	.	.	.	.	.
.	.	4A/	.	.	.	1g\	.
.	.	4G/	.	.	.	.	.
1D\	.	1A\	.	1d\	.	.	.
.	.	.	.	.	.	2f#X/	.
=44-	=44-	=44-	=44-	=44-	=44-	=44-	=44-
00GG/;	-son	00Bn\;	-son	00d\;	-son.	00g\;	-son.
==	==	==	==	==	==	==	==
*-	*-	*-	*-	*-	*-	*-	*-
!!!system-decoration: [(s1,s2,s3,s4)]
!!!EED: Leszek Kubiak
!!!EST: 2021-03-17
!!!AIN: 1 alto 1 empty 1 tenor 1 vox
!!!ENC: Andrzej Gręziak
!!!END: 2021-03-01
